static/images/mobile/copyright/wikipedia-wordmark-ik.svg

<?xml version="1.0" encoding="UTF-8"?>
<svg width="105px" height="21px" viewBox="0 0 105 21" version="1.1" xmlns="http://www.w3.org/2000/svg" xmlns:xlink="http://www.w3.org/1999/xlink">
    <title>ik-wordmark</title>
    <g id="Page-1" stroke="none" stroke-width="1" fill="none" fill-rule="evenodd">
        <path d="M30.7800056,6.01079488 C29.7626999,6.01079488 28.8837535,6.45841643 28.143164,7.35363001 C27.4025661,8.24072516 27.0322725,9.48589949 27.0322725,11.0891565 C27.0322725,12.6191791 27.4188429,13.8806303 28.1919944,14.8735116 C28.9651374,15.8663981 29.9620904,16.3628397 31.1828565,16.3628397 C32.3140857,16.3628397 33.2215164,15.9192982 33.9051512,15.0322117 C34.5887662,14.1369894 34.9305896,12.9284383 34.9305896,11.4065532 C34.9305896,9.78701942 34.523659,8.48487716 33.7098296,7.50012121 C32.9041191,6.50724683 31.927512,6.01079488 30.7800056,6.01079488 M29.974304,18.2183949 C30.0719587,18.2102556 30.141135,18.206186 30.1818333,18.2061877 C30.9631126,18.206186 31.927512,18.4788219 33.0750344,19.0240956 C34.2306769,19.5693658 35.081139,19.8420018 35.6264229,19.8420052 C36.3914198,19.8420018 36.9692453,19.5978498 37.3599024,19.1095492 L37.7017152,19.3659084 C36.9529685,20.4645898 35.9885694,21.0139348 34.8085136,21.0139348 C34.0760475,21.0139348 33.3802151,20.8511634 32.7210141,20.5256308 C32.0617955,20.2000914 31.4432778,19.878625 30.8654589,19.56123 C30.2957645,19.2438298 29.7586306,19.0851314 29.2540557,19.0851349 C29.2052201,19.0851314 29.1523204,19.0892011 29.0953568,19.0973421 C29.038383,19.1136171 28.9692066,19.1339618 28.8878277,19.1583796 C28.8064388,19.1909315 28.7291241,19.227553 28.6558832,19.2682476 C28.4931107,19.4228746 28.3384812,19.5856426 28.1919944,19.7565516 C28.0454992,19.9274554 27.9071466,20.1024306 27.776936,20.2814788 L26.9590269,19.8908356 C27.2764212,19.4350835 27.7281019,18.9589867 28.3140704,18.4625469 C28.9081687,17.9661036 29.5470325,17.5306996 30.2306637,17.1563332 C28.6680862,17.0261188 27.3822202,16.4279469 26.3730621,15.3618156 C25.3638991,14.2956878 24.8593197,12.9691312 24.8593197,11.3821389 C24.8593197,9.56728349 25.4452829,8.08202679 26.6172141,6.92636531 C27.7972783,5.76258366 29.2621887,5.18067808 31.0119501,5.18067808 C32.69659,5.18067808 34.1330163,5.73003006 35.3212328,6.82870451 C36.509427,7.91925879 37.1035294,9.33126902 37.1035433,11.0647404 C37.1035294,12.5052415 36.700679,13.7748319 35.8949904,14.8735116 C35.0892774,15.9640589 33.9580408,16.6761685 32.5012773,17.009842 C31.5572152,17.335378 30.7148916,17.7382284 29.974304,18.2183949 M20.9920002,15.4346657 C20.9920002,16.0066657 21.2520002,16.3446657 22.0840002,16.4226657 L22.6300002,16.4756657 C22.7080002,16.4756657 22.7860002,16.5266657 22.7860002,16.6306657 L22.7860002,17.1766657 L22.7600002,17.2296657 C22.7600002,17.2296657 20.7840002,17.1766657 19.9780002,17.1766657 C19.2500002,17.1766657 17.2220002,17.2296657 17.2220002,17.2296657 L17.1700002,17.1766657 L17.1700002,16.6306657 C17.1700002,16.5266657 17.2480002,16.4756657 17.3520002,16.4756657 L17.8720002,16.4226657 C18.7300002,16.3446657 18.9900002,15.9286657 18.9900002,15.4346657 L18.9900002,6.77666572 C18.9900002,6.20666572 18.6770002,6.04766572 17.8720002,5.97166572 L17.3520002,5.91766572 C17.2480002,5.91766572 17.1700002,5.89366572 17.1700002,5.81366572 L17.1700002,5.21466572 L17.1960002,5.16266572 C17.1960002,5.16266572 19.2500002,5.21466572 20.0560002,5.21466572 C20.7580002,5.21466572 22.7600002,5.16266572 22.7600002,5.16266572 L22.7860002,5.21466572 L22.7860002,5.78666572 C22.7860002,5.86466572 22.7340002,5.91666572 22.6300002,5.91666572 L22.0840002,5.96966572 C21.2780002,6.04666572 20.9920002,6.25566572 20.9920002,6.77666572 L20.9920002,15.4346657 Z M42.6820002,15.4404777 C42.6820002,16.0124777 42.9420002,16.3504777 43.7740002,16.4284777 L44.3200002,16.4814777 C44.3980002,16.4814777 44.4760002,16.5324777 44.4760002,16.6364777 L44.4760002,17.1824777 L44.4500002,17.2354777 C44.4500002,17.2354777 42.4740002,17.1824777 41.6680002,17.1824777 C40.9400002,17.1824777 38.9120002,17.2354777 38.9120002,17.2354777 L38.8600002,17.1824777 L38.8600002,16.6364777 C38.8600002,16.5324777 38.9380002,16.4814777 39.0420002,16.4814777 L39.5620002,16.4284777 C40.4200002,16.3504777 40.6800002,15.9344777 40.6800002,15.4404777 L40.6800002,6.78247772 C40.6800002,6.21247772 40.3680002,6.05347772 39.5620002,5.97747772 L39.0420002,5.92347772 C38.9380002,5.92347772 38.8600002,5.89947772 38.8600002,5.81947772 L38.8600002,5.22047772 L38.8860002,5.16847772 C38.8860002,5.16847772 40.9400002,5.22047772 41.7460002,5.22047772 C42.4480002,5.22047772 44.4500002,5.16847772 44.4500002,5.16847772 L44.4760002,5.22047772 L44.4760002,5.79247772 C44.4760002,5.87047772 44.4240002,5.92247772 44.3200002,5.92247772 L43.7740002,5.97547772 C42.9680002,6.05247772 42.6820002,6.26147772 42.6820002,6.78247772 L42.6820002,15.4404777 Z M48.3000002,6.83347772 C48.3000002,6.02747772 47.9620002,6.00147772 46.7400002,5.92347772 C46.5840002,5.92347772 46.5580002,5.84647772 46.5580002,5.79347772 L46.5580002,5.19547772 L46.6100002,5.16947772 C47.0000002,5.16947772 48.5340002,5.22147772 49.2880002,5.22147772 C50.0160002,5.22147772 51.0560002,5.16947772 52.0180002,5.16947772 C55.7080002,5.16947772 56.3840002,6.98847772 56.3840002,8.34247772 C56.3840002,9.90347772 55.6300002,12.3464777 51.9400002,12.3464777 C51.2900002,12.3464777 50.7700002,12.2934777 50.3010002,12.0864777 L50.3010002,15.5684777 C50.3010002,16.1394777 50.6130002,16.2714777 51.4460002,16.4004777 L51.9670002,16.4784777 C52.0710002,16.5034777 52.1500002,16.5314777 52.1500002,16.6334777 L52.1500002,17.1794777 L52.1260002,17.2324777 C52.1260002,17.2324777 50.0450002,17.1794777 49.2390002,17.1794777 C48.5110002,17.1794777 46.5610002,17.2324777 46.5610002,17.2324777 L46.5350002,17.1794777 L46.5350002,16.6334777 C46.5350002,16.5294777 46.5870002,16.5034777 46.6910002,16.4784777 L47.2370002,16.4004777 C48.0430002,16.2964777 48.3030002,16.0624777 48.3030002,15.5684777 L48.3000002,6.83347772 L48.3000002,6.83347772 L48.3000002,6.83347772 Z M50.3020002,11.3584777 C50.8220002,11.5674777 51.4720002,11.5924777 51.9920002,11.5924777 C53.5530002,11.5924777 54.3040002,10.6544777 54.3040002,8.65447772 C54.3040002,6.41847772 53.2900002,5.92447772 51.8620002,5.92447772 C50.6130002,5.92447772 50.3010002,6.15847772 50.3010002,6.83447772 L50.3020002,11.3584777 L50.3020002,11.3584777 Z M83.4120002,15.4404777 C83.4120002,16.0124777 83.6720002,16.3504777 84.5040002,16.4284777 L85.0500002,16.4814777 C85.1280002,16.4814777 85.2060002,16.5324777 85.2060002,16.6364777 L85.2060002,17.1824777 L85.1800002,17.2354777 C85.1800002,17.2354777 83.2040002,17.1824777 82.3990002,17.1824777 C81.6700002,17.1824777 79.6430002,17.2354777 79.6430002,17.2354777 L79.5900002,17.1824777 L79.5900002,16.6364777 C79.5900002,16.5324777 79.6680002,16.4814777 79.7720002,16.4814777 L80.2930002,16.4284777 C81.1500002,16.3504777 81.4110002,15.9344777 81.4110002,15.4404777 L81.4110002,6.78247772 C81.4110002,6.21247772 81.0980002,6.05347772 80.2930002,5.97747772 L79.7720002,5.92347772 C79.6680002,5.92347772 79.5900002,5.89947772 79.5900002,5.81947772 L79.5900002,5.22047772 L79.6160002,5.16847772 C79.6160002,5.16847772 81.6700002,5.22047772 82.4740002,5.22047772 C83.1750002,5.22047772 85.1790002,5.16847772 85.1790002,5.16847772 L85.2030002,5.22047772 L85.2030002,5.79247772 C85.2030002,5.87047772 85.1490002,5.92247772 85.0470002,5.92247772 L84.5010002,5.97547772 C83.6940002,6.05247772 83.4090002,6.26147772 83.4090002,6.78247772 L83.4120002,15.4404777 L83.4120002,15.4404777 L83.4120002,15.4404777 Z M91.4220002,16.4284777 L92.1760002,16.4814777 C92.2800002,16.4814777 92.3840002,16.5594777 92.3840002,16.6884777 L92.3840002,17.1824777 L92.3320002,17.2354777 C92.3320002,17.2354777 89.4980002,17.1824777 88.8740002,17.1824777 C88.1970002,17.1824777 86.5330002,17.2354777 86.5330002,17.2354777 L86.4800002,17.1824777 L86.4800002,16.6884777 C86.4800002,16.5594777 86.5580002,16.4814777 86.6890002,16.4814777 C87.8340002,16.4034777 88.4820002,16.1944777 89.2100002,14.5304777 L94.9810002,1.00947772 C95.2660002,0.333477724 95.4750002,0.0724777244 95.8670002,0.0724777244 C96.2290002,0.0724777244 96.3600002,0.333477724 96.5670002,0.853477724 L101.897,14.9454777 C102.262,15.9604777 102.783,16.3494777 103.823,16.4534777 L104.108,16.4784777 C104.239,16.4784777 104.369,16.5554777 104.369,16.6874777 L104.369,17.1794777 L104.291,17.2324777 C104.291,17.2324777 102.289,17.1794777 101.274,17.1794777 C100.364,17.1794777 97.8150002,17.2324777 97.8150002,17.2324777 L97.7910002,17.1794777 L97.7910002,16.6874777 C97.7910002,16.5554777 97.8430002,16.4784777 97.9760002,16.4784777 L98.7040002,16.4254777 C99.6910002,16.3484777 100.057,16.0344777 99.7960002,15.3084777 L98.2100002,10.9124777 L92.8000002,10.9124777 C92.1760002,10.9124777 92.0200002,11.0164777 91.8910002,11.3524777 L90.3820002,15.1234777 C90.1220002,15.7774777 90.4600002,16.3504777 91.4220002,16.4284777 Z M97.7920002,9.82247772 L95.2700002,2.88147772 L95.2180002,2.88147772 L92.6180002,9.48547772 C92.5140002,9.74747772 92.6950002,9.82347772 93.2670002,9.82347772 L97.7920002,9.82347772 L97.7920002,9.82247772 Z M62.2320002,15.4374777 C62.2320002,16.0094777 62.4920002,16.3474777 63.3240002,16.4254777 L63.8700002,16.4784777 C63.9480002,16.4784777 64.0260002,16.5294777 64.0260002,16.6334777 L64.0260002,17.1794777 L64.0000002,17.2324777 C64.0000002,17.2324777 62.0240002,17.1794777 61.2180002,17.1794777 C60.4900002,17.1794777 58.4620002,17.2324777 58.4620002,17.2324777 L58.4100002,17.1794777 L58.4100002,16.6334777 C58.4100002,16.5294777 58.4880002,16.4784777 58.5920002,16.4784777 L59.1120002,16.4254777 C59.9700002,16.3474777 60.2300002,15.9314777 60.2300002,15.4374777 L60.2300002,6.77947772 C60.2300002,6.20947772 59.9180002,6.05047772 59.1120002,5.97447772 L58.5920002,5.92047772 C58.4880002,5.92047772 58.4100002,5.89647772 58.4100002,5.81647772 L58.4100002,5.21747772 L58.4360002,5.16547772 C58.4360002,5.16547772 60.4900002,5.21747772 61.2960002,5.21747772 C61.9980002,5.21747772 64.0000002,5.16547772 64.0000002,5.16547772 L64.0260002,5.21747772 L64.0260002,5.78947772 C64.0260002,5.86747772 63.9740002,5.91947772 63.8700002,5.91947772 L63.3240002,5.97247772 C62.5180002,6.04947772 62.2320002,6.25847772 62.2320002,6.77947772 L62.2320002,15.4374777 Z M72.9771203,13.992175 C72.9771129,15.0382622 73.0791697,15.6846233 73.2832914,15.9312584 C73.4959022,16.1693932 74.0189438,16.3182259 74.8524181,16.3777583 C74.937456,16.4628058 74.9799798,16.6116385 74.9799894,16.8242582 C74.9884845,17.0283722 74.9459608,17.1644482 74.8524181,17.2324863 C73.3555739,17.1984672 72.3902856,17.1814577 71.9565501,17.1814577 C71.4717733,17.1814577 70.4979802,17.1984672 69.0351681,17.2324863 C68.9671264,17.1644482 68.9288551,17.0283722 68.9203538,16.8242582 C68.9203504,16.6116385 68.9586217,16.4628058 69.0351681,16.3777583 C69.8686292,16.3097203 70.3874185,16.1566347 70.5915376,15.9185017 C70.8041509,15.6803705 70.9104602,15.0382622 70.9104657,13.992175 L70.9104657,7.38398395 C70.9104602,7.03529911 70.8254127,6.72912806 70.6553231,6.46547078 C70.4937278,6.19332961 70.2385856,6.05725359 69.8898955,6.0572427 L68.7672683,6.0572427 C68.1889425,6.05725359 67.7764625,6.21459013 67.529827,6.52925596 C67.291692,6.8354379 67.0322973,7.47754619 66.7516422,8.45558264 C66.5050033,8.4725994 66.2711229,8.44708606 66.0500003,8.37903897 C66.1860754,7.56259189 66.2583659,6.36767566 66.2668713,4.79428664 C66.5305175,4.76028034 66.7473884,4.76028034 66.9174849,4.79428664 C67.0025308,5.04093623 67.2364112,5.16425558 67.6191268,5.16424288 L76.0005596,5.16424288 C76.3832623,5.16425558 76.6213952,5.04093623 76.7149587,4.79428664 C76.9615849,4.72626133 77.1784558,4.72626133 77.3655721,4.79428664 C77.3655601,6.22309579 77.4335982,7.41801202 77.5696862,8.37903897 C77.3995791,8.48110506 77.1656988,8.50661841 76.8680442,8.45558264 C76.6043857,7.4945557 76.344991,6.85669842 76.0898594,6.54201263 C75.8432112,6.21884296 75.4392358,6.05725359 74.8779324,6.0572427 L74.0232048,6.0572427 C73.6915113,6.05725359 73.4321166,6.19758063 73.2450201,6.47822745 C73.0664127,6.75039039 72.9771129,7.06081246 72.9771203,7.40949729 L72.9771203,13.992175 M4.35541034,3.25374865 L4.35541034,9.99182377 C4.35540579,10.726271 4.37248583,11.3326133 4.40665046,11.810849 C4.44080599,12.2805547 4.56463619,12.8228455 4.77814144,13.4377215 C4.99163666,14.0440657 5.29907721,14.5393869 5.70046363,14.923685 C6.55445892,15.7435288 7.59207039,16.1577184 8.81330094,16.1662594 C9.66729314,16.1662594 10.4017342,16.029619 11.0166262,15.7563384 C11.6314958,15.4830577 12.1054665,15.1499979 12.4385397,14.7571551 C12.7715875,14.364316 13.0320579,13.8561852 13.2199514,13.232761 C13.4163584,12.6093441 13.5359185,12.0414341 13.5786323,11.5290274 C13.6213185,11.0166317 13.6426687,10.4102911 13.6426825,9.71000401 L13.6426825,3.25374865 C13.6426687,2.71574103 13.6170486,2.30154959 13.5658223,2.01117433 C13.5145686,1.72083003 13.3779282,1.49451904 13.1559014,1.33224317 C12.9423877,1.16145916 12.7118074,1.05470845 12.4641597,1.01199286 C12.2164867,0.969308247 11.8065661,0.922338591 11.2343968,0.871082072 C11.1660652,0.802778306 11.1319053,0.661867516 11.1319166,0.448351522 C11.1319053,0.2348665 11.1660652,0.0854166 11.2343968,0 C12.8399075,0.0341764781 13.8518989,0.0512565187 14.2703739,0.0512401219 C14.7229801,0.0512565187 15.6154114,0.0341764781 16.9476704,0 C17.0159732,0.0854166 17.0501506,0.2348665 17.0501506,0.448351522 C17.0501506,0.653328406 17.0159732,0.794237375 16.9476704,0.871082072 C16.093652,0.973578712 15.5428213,1.14864776 15.2951764,1.39629287 C15.0560407,1.63542983 14.9364804,2.25457994 14.9364955,3.25374865 L14.9364955,9.23603151 C14.9364804,10.4743408 14.8382702,11.554652 14.6418649,12.4769706 C14.4539697,13.3907555 14.1166393,14.2191366 13.6298724,14.9621156 C13.151618,15.7050983 12.464147,16.2687396 11.5674576,16.6530396 C10.6792845,17.0373396 9.57762302,17.2294905 8.26246973,17.2294905 C7.49386025,17.2294905 6.78503911,17.1440903 6.13600467,16.9732899 C5.4954975,16.8024895 4.85499652,16.5035897 4.2145001,16.0765887 C3.57399475,15.6410486 3.06586407,14.9834679 2.6901064,14.1038431 C2.31434303,13.2156846 2.12646276,12.1353734 2.12646506,10.8629058 L2.12646506,3.25374865 C2.12646276,2.22041986 1.99836259,1.57564878 1.74216414,1.31943359 C1.4945019,1.05470845 0.947941143,0.90525855 0.102480244,0.871082072 C0.0341598808,0.802778306 -3.55271368e-15,0.661867516 -3.55271368e-15,0.448351522 C-3.55271368e-15,0.2348665 0.0341598808,0.0854166 0.102480244,0 C1.46888186,0.0341764781 2.51076329,0.0512565187 3.22812768,0.0512401219 C3.94548536,0.0512565187 5.12827699,0.0341764781 6.77650619,0 C6.84481925,0.0854166 6.87897933,0.2348665 6.87898643,0.448351522 C6.87897933,0.653328406 6.84481925,0.794237375 6.77650619,0.871082072 C5.72607768,0.90525855 5.05995682,1.05043798 4.77814144,1.30662402 C4.49631603,1.55429827 4.35540579,2.20333982 4.35541034,3.25374865" id="ik-wordmark" fill="#000000" fill-rule="nonzero"></path>
    </g>
</svg>

<svg xmlns="http://www.w3.org/2000/svg" width="105" height="21"><path fill="#000" fill-rule="nonzero" d="M30.78 6.01c-1.017 0-1.896.448-2.637 1.344-.74.887-1.11 2.132-1.11 3.735 0 1.53.386 2.792 1.159 3.785.773.992 1.77 1.489 2.99 1.489 1.132 0 2.04-.444 2.723-1.33.684-.896 1.026-2.105 1.026-3.626 0-1.62-.407-2.922-1.221-3.907-.806-.993-1.782-1.49-2.93-1.49m-.806 12.208c.098-.008.167-.012.208-.012.781 0 1.746.273 2.893.818 1.156.545 2.006.818 2.551.818.765 0 1.343-.244 1.734-.732l.342.256c-.749 1.099-1.713 1.648-2.893 1.648a4.654 4.654 0 0 1-2.088-.488 48.06 48.06 0 0 1-1.856-.965c-.57-.317-1.106-.476-1.61-.476-.05 0-.103.004-.16.012l-.207.061c-.082.033-.159.07-.232.11a6.573 6.573 0 0 0-.464.489c-.147.17-.285.345-.415.524l-.818-.39c.317-.456.77-.932 1.355-1.428a11.88 11.88 0 0 1 1.917-1.307c-1.563-.13-2.849-.728-3.858-1.794-1.01-1.066-1.514-2.393-1.514-3.98 0-1.815.586-3.3 1.758-4.456 1.18-1.163 2.645-1.745 4.395-1.745 1.685 0 3.121.549 4.31 1.648 1.187 1.09 1.782 2.502 1.782 4.236 0 1.44-.403 2.71-1.209 3.809-.806 1.09-1.937 1.802-3.394 2.136-.944.325-1.786.728-2.527 1.208m-8.982-2.783c0 .572.26.91 1.092.988l.546.053c.078 0 .156.05.156.155v.546l-.026.053s-1.976-.053-2.782-.053c-.728 0-2.756.053-2.756.053l-.052-.053v-.546c0-.104.078-.155.182-.155l.52-.053c.858-.078 1.118-.494 1.118-.988V6.777c0-.57-.313-.73-1.118-.805l-.52-.054c-.104 0-.182-.024-.182-.104v-.6l.026-.051s2.054.052 2.86.052c.702 0 2.704-.052 2.704-.052l.026.052v.572c0 .078-.052.13-.156.13l-.546.053c-.806.077-1.092.286-1.092.807v8.658Zm21.69.005c0 .572.26.91 1.092.988l.546.053c.078 0 .156.051.156.155v.546l-.026.053s-1.976-.053-2.782-.053c-.728 0-2.756.053-2.756.053l-.052-.053v-.546c0-.104.078-.155.182-.155l.52-.053c.858-.078 1.118-.494 1.118-.988V6.782c0-.57-.312-.729-1.118-.805l-.52-.054c-.104 0-.182-.024-.182-.104V5.22l.026-.052s2.054.052 2.86.052c.702 0 2.704-.052 2.704-.052l.026.052v.572c0 .078-.052.13-.156.13l-.546.053c-.806.077-1.092.286-1.092.807v8.658ZM48.3 6.833c0-.806-.338-.832-1.56-.91-.156 0-.182-.077-.182-.13v-.598l.052-.026c.39 0 1.924.052 2.678.052.728 0 1.768-.052 2.73-.052 3.69 0 4.366 1.82 4.366 3.173 0 1.561-.754 4.004-4.444 4.004-.65 0-1.17-.053-1.639-.26v3.482c0 .571.312.703 1.145.832l.521.078c.104.025.183.053.183.155v.546l-.024.053s-2.081-.053-2.887-.053c-.728 0-2.678.053-2.678.053l-.026-.053v-.546c0-.104.052-.13.156-.155l.546-.078c.806-.104 1.066-.338 1.066-.832L48.3 6.833Zm2.002 4.525c.52.21 1.17.234 1.69.234 1.561 0 2.312-.938 2.312-2.938 0-2.236-1.014-2.73-2.442-2.73-1.249 0-1.561.234-1.561.91l.001 4.524Zm33.11 4.082c0 .572.26.91 1.092.988l.546.053c.078 0 .156.051.156.155v.546l-.026.053s-1.976-.053-2.781-.053c-.729 0-2.756.053-2.756.053l-.053-.053v-.546c0-.104.078-.155.182-.155l.521-.053c.857-.078 1.118-.494 1.118-.988V6.782c0-.57-.313-.729-1.118-.805l-.521-.054c-.104 0-.182-.024-.182-.104V5.22l.026-.052s2.054.052 2.858.052c.701 0 2.705-.052 2.705-.052l.024.052v.572c0 .078-.054.13-.156.13l-.546.053c-.807.077-1.092.286-1.092.807l.003 8.658Zm8.01.988.754.053c.104 0 .208.078.208.207v.494l-.052.053s-2.834-.053-3.458-.053c-.677 0-2.341.053-2.341.053l-.053-.053v-.494c0-.129.078-.207.209-.207 1.145-.078 1.793-.287 2.521-1.95l5.771-13.522c.285-.676.494-.937.886-.937.362 0 .493.261.7.781l5.33 14.092c.365 1.015.886 1.404 1.926 1.508l.285.025c.131 0 .261.077.261.21v.491l-.078.053s-2.002-.053-3.017-.053c-.91 0-3.459.053-3.459.053l-.024-.053v-.492c0-.132.052-.209.185-.209l.728-.053c.987-.077 1.353-.39 1.092-1.117l-1.586-4.396H92.8c-.624 0-.78.104-.909.44l-1.509 3.771c-.26.654.078 1.227 1.04 1.305Zm6.37-6.606-2.522-6.94h-.052l-2.6 6.603c-.104.262.077.338.649.338h4.525Zm-35.56 5.615c0 .572.26.91 1.092.988l.546.053c.078 0 .156.051.156.155v.546l-.026.053s-1.976-.053-2.782-.053c-.728 0-2.756.053-2.756.053l-.052-.053v-.546c0-.104.078-.155.182-.155l.52-.053c.858-.078 1.118-.494 1.118-.988V6.78c0-.57-.312-.729-1.118-.805l-.52-.054c-.104 0-.182-.024-.182-.104v-.599l.026-.052s2.054.052 2.86.052c.702 0 2.704-.052 2.704-.052l.026.052v.572c0 .078-.052.13-.156.13l-.546.053c-.806.077-1.092.286-1.092.807v8.658Zm10.745-1.445c0 1.046.102 1.693.306 1.94.213.237.736.386 1.57.446.084.085.127.234.127.446.008.204-.034.34-.128.408a169.083 169.083 0 0 0-2.895-.05c-.485 0-1.459.016-2.922.05-.068-.068-.106-.204-.115-.408 0-.212.039-.361.115-.446.834-.068 1.352-.221 1.557-.46.212-.238.318-.88.318-1.926V7.384c0-.349-.085-.655-.255-.919-.161-.272-.416-.408-.765-.408h-1.123c-.578 0-.99.158-1.237.472-.238.306-.498.949-.778 1.927a1.917 1.917 0 0 1-.702-.077c.136-.816.208-2.011.217-3.585.264-.034.48-.034.65 0 .086.247.32.37.702.37h8.382c.382 0 .62-.123.714-.37.247-.068.463-.068.65 0 0 1.43.069 2.624.205 3.585-.17.102-.404.128-.702.077-.264-.961-.523-1.6-.778-1.914-.247-.323-.65-.485-1.212-.485h-.855a.886.886 0 0 0-.778.421 1.659 1.659 0 0 0-.268.931v6.583M4.355 3.254v6.738c0 .734.017 1.34.052 1.819.034.47.158 1.012.371 1.627.214.606.521 1.101.922 1.486.854.82 1.892 1.234 3.113 1.242.854 0 1.589-.136 2.204-.41.614-.273 1.088-.606 1.422-.999.333-.393.593-.9.781-1.524a7.919 7.919 0 0 0 .359-1.704c.042-.512.064-1.119.064-1.819V3.254c0-.538-.026-.952-.077-1.243a1.027 1.027 0 0 0-.41-.679 1.507 1.507 0 0 0-.692-.32c-.248-.043-.657-.09-1.23-.14-.068-.07-.102-.21-.102-.424 0-.213.034-.363.102-.448 1.606.034 2.618.051 3.036.051.453 0 1.345-.017 2.678-.051.068.085.102.235.102.448 0 .205-.034.346-.102.423-.854.103-1.405.278-1.653.525-.239.24-.359.859-.359 1.858v5.982c0 1.238-.098 2.319-.294 3.241a7.097 7.097 0 0 1-1.012 2.485c-.478.743-1.166 1.307-2.063 1.691-.888.384-1.99.576-3.305.576a8.34 8.34 0 0 1-2.126-.256c-.64-.17-1.281-.47-1.921-.896-.641-.436-1.15-1.094-1.525-1.973-.376-.888-.564-1.969-.564-3.241v-7.61c0-1.033-.128-1.677-.384-1.934C1.495 1.055.948.905.102.871.034.803 0 .661 0 .448S.034.085.102 0C1.47.034 2.511.051 3.228.051c.717 0 1.9-.017 3.549-.051.068.085.102.235.102.448 0 .205-.034.346-.102.423-1.05.034-1.717.18-1.999.436-.282.247-.423.896-.423 1.947"/></svg>
